wp-content/themes/wp-rock/assets/public/images/icon-arrow.svg

<svg width="20" height="20" viewBox="0 0 20 20" fill="none" xmlns="http://www.w3.org/2000/svg">
<g id="Frame" clip-path="url(#clip0_2131_6394)">
<path id="Vector" d="M4.63776 10.413L15.3622 10.413M15.3622 10.413L14.1196 9.47469C13.0282 8.65061 12.0547 7.68116 11.2261 6.59328L10.2145 5.26527M15.3622 10.413L14.4337 11.0762C13.1361 12.0031 11.9946 13.1309 11.0522 14.4172L10.2145 15.5607" stroke="black" stroke-width="0.666667" stroke-linecap="square"/>
</g>
<defs>
<clipPath id="clip0_2131_6394">
<rect width="14" height="14" fill="white" transform="translate(10 0.101562) rotate(45)"/>
</clipPath>
</defs>
</svg>

<svg width="20" height="20" viewBox="0 0 20 20" fill="none" xmlns="http://www.w3.org/2000/svg"><g clip-path="url(#clip0_2131_6394)"><path d="M4.638 10.413h10.724m0 0l-1.242-.938a14.997 14.997 0 01-2.894-2.882l-1.012-1.328m5.148 5.148l-.928.663a15.001 15.001 0 00-3.382 3.341l-.838 1.144" stroke="#000" stroke-width=".667" stroke-linecap="square"/></g><defs><clipPath id="clip0_2131_6394"><path fill="#fff" transform="rotate(45 4.877 12.122)" d="M0 0h14v14H0z"/></clipPath></defs></svg>
